**kern	**kern	**dynam
*part1	*part1	*part1
*staff2	*staff1	*
*I"Piano	*	*
*clefF4	*clefG2	*
*k[b-e-a-d-]	*k[b-e-a-d-]	*
=1	=1	=1
2.G 2.e-	2.b- 2.ee-X	.
=	=	=
*^	*	*
2cn	(4A-	8r	[
.	.	(8e-L	.
.	4G	8en	.
.	.	8b-	.
4c	4F)	8a-	.
.	.	8fJ)	.
*v	*v	*	*
=	=	=
2.C 2.B-	2.en 2.g	.
=	=	=
2.D- 2.F	8r	.
.	(8AnL	.
.	8B-	.
.	8d-	.
.	8f	.
.	8b-J)	.
=	=	=
*^	*	*
(2F	2.C	2.c 2.g	.
4En)	.	.	.
*v	*v	*	*
=	=	=
2.D- 2.F	2A-X 2a-X	.
.	4f	.
=	=	=
(2.BB-	(2.d- 2.f 2.dd-	.
=	=	=
2.AA-	2.c 2.f 2.cc	.
=	=	=
2.GG)	2.Bn) 2.f 2.bn	.
=	=	=
4r	4r	.
4r	4r	.
(4AA-	(4c 4f 4cc	.
=	=	=
*-	*-	*-
!!!system-decoration: {(s1,s2)}
